public/assets/ieee-logo.svg

<svg width="907" height="237" viewBox="0 0 907 237" fill="none" xmlns="http://www.w3.org/2000/svg">
<path d="M166.639 5.76237C165.618 6.22707 160.141 12.64 154.385 19.8894C128.113 52.9765 96.4558 83.1824 64.1492 105.581C58.3934 109.578 53.0089 113.853 52.2663 114.968C50.5024 117.664 51.3379 121.195 54.123 123.147C87.1723 146.661 98.8695 156.42 121.15 178.819C138.696 196.478 154.385 214.694 161.44 225.568C164.04 229.472 165.247 230.587 167.846 231.052C169.61 231.424 171.745 231.238 172.581 230.773C173.416 230.308 177.13 225.94 180.843 221.107C205.63 189.321 235.801 159.859 267.83 136.159C273.493 131.976 279.991 127.422 282.498 126.028C284.911 124.541 287.325 122.589 287.882 121.567C289.182 119.058 288.068 114.596 285.654 112.924C257.246 93.22 244.157 82.6247 223.826 62.7353C206.466 45.82 193.376 31.1353 182.236 16.2647C173.602 4.83296 171.374 3.3459 166.639 5.76237ZM178.801 36.2471C193.469 43.6824 228.189 75.933 247.035 99.633C256.968 112.087 258.082 114.039 258.082 118.686C258.082 121.753 257.154 123.891 253.347 129.56C237.101 153.911 184.464 201.589 172.024 203.262C165.525 204.099 154.849 197.221 132.29 177.518C106.575 155.026 83.6446 129.188 81.695 120.452C80.3953 114.411 85.6869 106.325 104.718 85.5988C119.757 69.2412 154.199 39.593 163.761 34.9459C168.125 32.7153 172.674 33.18 178.801 36.2471Z" fill="#5EB7FF"/>
<path d="M163.854 40.8941C154.664 45.4482 123.378 72.4012 108.153 88.9447C91.9998 106.418 86.5225 114.689 87.6365 119.987C88.1935 122.868 92.6496 129.281 101.005 139.319C115.858 157.256 149.558 187.276 162.369 194.154C171.003 198.708 173.973 198.151 186.135 189.228C209.158 172.313 242.578 138.761 249.727 125.285C252.048 120.916 252.605 119.058 252.141 116.641C250.562 108.648 221.783 76.2118 199.503 57.3447C178.058 39.3141 172.302 36.6188 163.854 40.8941ZM176.851 74.1671C180.472 83.74 183.442 92.0118 183.628 92.6623C183.907 93.4988 182.514 93.8706 179.172 93.8706H174.345L174.994 111.529L175.644 129.188H169.424H163.297L163.947 111.529L164.597 93.8706H160.141C157.077 93.8706 155.87 93.4988 156.242 92.6623C157.449 89.3165 165.34 67.4753 167.196 62.4565C168.31 59.2965 169.424 56.6941 169.796 56.6941C170.074 56.6941 173.323 64.5941 176.851 74.1671ZM149.372 103.722C152.528 105.581 154.849 107.44 154.571 107.812C154.292 108.184 152.621 108.834 150.672 109.206C141.481 110.879 134.333 116.92 136.282 121.288C138.882 126.958 153.55 130.675 172.209 130.489C186.877 130.304 196.532 128.352 203.681 124.169C207.394 122.032 207.951 121.288 207.951 118.593C207.951 113.481 201.174 109.299 195.047 110.693C193.283 111.065 191.705 111.344 191.612 111.251C190.869 110.507 187.806 101.306 188.27 101.306C190.591 101.306 209.808 106.418 209.808 106.975C209.808 107.44 209.158 107.812 208.229 107.812C207.394 107.812 208.322 108.927 210.55 110.6C216.956 115.154 217.977 119.615 213.985 124.448C207.858 131.698 190.962 135.973 168.496 136.066C150.115 136.066 138.139 133.742 126.07 127.701C113.073 121.195 116.044 110.414 132.754 103.351C136.561 101.771 140.645 100.376 141.759 100.376C142.873 100.376 146.308 101.864 149.372 103.722ZM175.923 138.668C176.108 139.319 176.665 147.405 177.13 156.606C177.78 168.688 177.687 173.521 176.944 173.986C175.737 174.822 165.061 174.915 163.019 174.172C161.719 173.614 161.533 171.662 162.09 156.699C162.369 147.498 162.74 139.319 163.019 138.668C163.204 137.925 165.34 137.553 169.424 137.553C173.509 137.553 175.644 137.925 175.923 138.668Z" fill="#5EB7FF"/>
<path d="M319.353 125.935V214.694H343.49H367.627V125.935V37.1765H343.49H319.353V125.935Z" fill="white"/>
<path d="M394.55 125.935V214.694H461.855H529.161V198.058C529.161 185.604 528.882 181.328 528.047 181.049C527.397 180.864 508.087 180.585 485.064 180.399L443.288 180.213L443.01 161.16L442.824 142.2L482.279 142.014L521.827 141.735L522.198 125.192L522.662 108.741H482.743H442.824L443.01 89.8741L443.288 71.1L486.271 70.8212L529.161 70.6353V53.9059V37.1765H461.855H394.55V125.935Z" fill="white"/>
<path d="M557.94 125.935V214.694H625.245H692.551V198.058C692.551 184.209 692.365 181.328 691.158 180.864C690.416 180.585 671.106 180.399 648.268 180.399L606.678 180.492L606.4 161.346L606.214 142.2H645.669H685.124V125.471V108.741H645.669H606.214V89.6882V70.6353H649.382H692.551V53.9059V37.1765H625.245H557.94V125.935Z" fill="white"/>
<path d="M720.587 125.656L720.866 214.229L788.45 214.508L855.941 214.694L855.755 197.779L855.477 180.771H812.494H769.604V161.439V142.2H809.059H848.514V125.471V108.741H809.059H769.604V89.6882V70.6353H812.772H855.941V53.9059V37.1765H788.171H720.401L720.587 125.656Z" fill="white"/>
<path d="M214.728 205.4C211.107 207.538 209.622 210.233 209.622 214.415C209.622 221.758 213.614 225.847 220.948 225.847C228.096 225.847 233.016 221.293 233.016 214.694C233.016 205.958 222.526 200.567 214.728 205.4ZM225.497 206.794C233.666 210.976 230.231 223.988 221.041 223.988C216.677 223.988 213.892 222.036 212.593 217.947C209.9 209.768 217.884 202.798 225.497 206.794Z" fill="white"/>
<path d="M216.492 214.88C216.77 220.642 218.348 222.687 218.905 217.947C219.277 214.88 220.577 214.973 222.34 218.412C223.176 219.899 224.197 221.2 224.661 221.2C225.868 221.2 225.868 220.828 224.476 217.947C223.547 215.902 223.64 215.438 225.218 214.229C228.096 212.092 225.868 209.675 220.577 209.304L216.213 209.025L216.492 214.88ZM223.454 211.534C224.104 213.207 222.155 214.787 220.298 214.044C219.648 213.765 219.091 212.742 219.091 211.813C219.091 209.582 222.619 209.396 223.454 211.534Z" fill="white"/>
</svg>

<svg width="907" height="237" fill="none" xmlns="http://www.w3.org/2000/svg"><path d="M166.639 5.762c-1.021.465-6.498 6.878-12.254 14.127-26.272 33.088-57.93 63.293-90.236 85.692-5.756 3.997-11.14 8.272-11.883 9.387-1.764 2.696-.928 6.227 1.857 8.179 33.05 23.514 44.747 33.273 67.027 55.672 17.546 17.659 33.235 35.875 40.29 46.749 2.6 3.904 3.807 5.019 6.406 5.484 1.764.372 3.899.186 4.735-.279.835-.465 4.549-4.833 8.262-9.666 24.787-31.786 54.958-61.248 86.987-84.948 5.663-4.183 12.161-8.737 14.668-10.131 2.413-1.487 4.827-3.439 5.384-4.461 1.3-2.509.186-6.971-2.228-8.643-28.408-19.704-41.497-30.3-61.828-50.189-17.36-16.915-30.45-31.6-41.59-46.47-8.634-11.432-10.862-12.92-15.597-10.503Zm12.162 30.485c14.668 7.435 49.388 39.686 68.234 63.386 9.933 12.454 11.047 14.406 11.047 19.053 0 3.067-.928 5.205-4.735 10.874-16.246 24.351-68.883 72.029-81.323 73.702-6.499.837-17.175-6.041-39.734-25.744-25.715-22.492-48.645-48.33-50.595-57.066-1.3-6.041 3.992-14.127 23.023-34.853 15.039-16.358 49.481-46.006 59.043-50.653 4.364-2.23 8.913-1.766 15.04 1.301Z" fill="#5EB7FF"/><path d="M163.854 40.894c-9.19 4.554-40.476 31.507-55.701 48.05C92 106.419 86.523 114.69 87.636 119.988c.558 2.881 5.014 9.294 13.369 19.332 14.853 17.937 48.553 47.957 61.364 54.835 8.634 4.554 11.604 3.997 23.766-4.926 23.023-16.915 56.443-50.467 63.592-63.943 2.321-4.369 2.878-6.227 2.414-8.644-1.579-7.993-30.358-40.43-52.638-59.296-21.445-18.03-27.201-20.726-35.649-16.45Zm12.997 33.273c3.621 9.573 6.591 17.845 6.777 18.495.279.837-1.114 1.209-4.456 1.209h-4.827l.649 17.658.65 17.659h-12.347l.65-17.659.65-17.658h-4.456c-3.064 0-4.271-.372-3.899-1.209 1.207-3.346 9.098-25.187 10.954-30.206 1.114-3.16 2.228-5.762 2.6-5.762.278 0 3.527 7.9 7.055 17.473Zm-27.479 29.555c3.156 1.859 5.477 3.718 5.199 4.09-.279.372-1.95 1.022-3.899 1.394-9.191 1.673-16.339 7.714-14.39 12.082 2.6 5.67 17.268 9.387 35.927 9.201 14.668-.185 24.323-2.137 31.472-6.32 3.713-2.137 4.27-2.881 4.27-5.576 0-5.112-6.777-9.294-12.904-7.9-1.764.372-3.342.651-3.435.558-.743-.744-3.806-9.945-3.342-9.945 2.321 0 21.538 5.112 21.538 5.669 0 .465-.65.837-1.579.837-.835 0 .093 1.115 2.321 2.788 6.406 4.554 7.427 9.015 3.435 13.848-6.127 7.25-23.023 11.525-45.489 11.618-18.381 0-30.357-2.324-42.426-8.365-12.997-6.506-10.026-17.287 6.684-24.35 3.807-1.58 7.891-2.975 9.005-2.975 1.114 0 4.549 1.488 7.613 3.346Zm26.551 34.946c.185.651.742 8.737 1.207 17.938.65 12.082.557 16.915-.186 17.38-1.207.836-11.883.929-13.925.186-1.3-.558-1.486-2.51-.929-17.473.279-9.201.65-17.38.929-18.031.185-.743 2.321-1.115 6.405-1.115 4.085 0 6.22.372 6.499 1.115Z" fill="#5EB7FF"/><path d="M319.353 125.935v88.759h48.274V37.177h-48.274v88.758ZM394.55 125.935v88.759h134.611v-16.636c0-12.454-.279-16.73-1.114-17.009-.65-.185-19.96-.464-42.983-.65l-41.776-.186-.278-19.053-.186-18.96 39.455-.186 39.548-.279.371-16.543.464-16.451h-79.838l.186-18.867.278-18.774 42.983-.279 42.89-.186V37.176H394.55v88.759ZM557.94 125.935v88.759h134.611v-16.636c0-13.849-.186-16.73-1.393-17.194-.742-.279-20.052-.465-42.89-.465l-41.59.093-.278-19.146-.186-19.146h78.91v-33.459h-78.91V70.635H692.551V37.176H557.94v88.759ZM720.587 125.656l.279 88.573 67.584.279 67.491.186-.186-16.915-.278-17.008H769.604V142.2h78.91v-33.459h-78.91V70.635H855.941V37.176h-135.54l.186 88.48ZM214.728 205.4c-3.621 2.138-5.106 4.833-5.106 9.015 0 7.343 3.992 11.432 11.326 11.432 7.148 0 12.068-4.554 12.068-11.153 0-8.736-10.49-14.127-18.288-9.294Zm10.769 1.394c8.169 4.182 4.734 17.194-4.456 17.194-4.364 0-7.149-1.952-8.448-6.041-2.693-8.179 5.291-15.149 12.904-11.153Z" fill="#fff"/><path d="M216.492 214.88c.278 5.762 1.856 7.807 2.413 3.067.372-3.067 1.672-2.974 3.435.465.836 1.487 1.857 2.788 2.321 2.788 1.207 0 1.207-.372-.185-3.253-.929-2.045-.836-2.509.742-3.718 2.878-2.137.65-4.554-4.641-4.925l-4.364-.279.279 5.855Zm6.962-3.346c.65 1.673-1.299 3.253-3.156 2.51-.65-.279-1.207-1.302-1.207-2.231 0-2.231 3.528-2.417 4.363-.279Z" fill="#fff"/></svg>
